X: 1
T: Joe's Farewell
M: 6/8
L: 1/8
R: jig
K: Dmaj
|: A | BAF AFE | DED AFA | def edB | egf edB | BAF AFE | DED AFA | def edB | ABc d2 :| |: A | def afa | baf afe | def edB | egf edB | [1 def afa | baf afe | def edB | ABc d2 :| [2 BAF AFE | DED AFA | def edB | ABc d2 ||
